X:54
T:Schottis ur Elias Wallgrens notbok
T:(SmM V-54)
R:Schottis
O:S:t Sigfrid, Växjö, Småland
S:Elias Wallgren
N:Ca 1870
B:Småländsk Musiktradition
M:2/4
L:1/8
K:D
dF/G/ (B/A/)(^G/A/)|(dF) BA|(C/D/)E/F/ (G/A/)B/A/|(^G/A/)(B/A/) AF/A/|
dF/G/ (B/A/)(^G/A/)|(dF) (BA)|(C/D/)E/F/ (G/A/)B/c/|dd d2:|
[K:G,]|:{/d}(cA) (cA)|{/c}(BG) {/c}BG|(F/G/)A/B/ (c/d/)e/d/|(^c/d/)e/d/ (dB)|
{/d}(cA) (cA)|{/c}(BG) {/c}BG|(F/G/)A/B/ (c/d/)e/d/| GG G2:|

